packages/design-system/src/icons/assets/btn_add_gray_24.svg

<svg xmlns="http://www.w3.org/2000/svg" width="24" height="24" fill="none"><path fill="#93959D" d="M11 11V5h2v6h6v2h-6v6h-2v-6H5v-2z"/></svg>

<svg width="24" height="24" viewBox="0 0 24 24" fill="none" xmlns="http://www.w3.org/2000/svg">
<path d="M11 11V5H13V11H19V13H13V19H11V13H5V11H11Z" fill="#93959D"/>
</svg>
